icons/file_type_wally.svg

<svg xmlns="http://www.w3.org/2000/svg" viewBox="0 0 32 32"><path fill="#F2C57E" d="m12.8 25.2-.9 3.8s8.5.2 12-2.7 2.7-2.7 2.7-2.7L22.9 20l-10.1 5.2z"/><path fill="#BD704B" d="M15.3 25.7s.3 2.8 1.2 3.3c0 0-4.5.4-4.4-.9l.7-2.9 2.5.5z"/><path fill="#F2C57E" d="M12.2 18.8s.8 1.1 1 2.9c.2 1.8-1.9 3.3 2 3.9 3.4.6 10.6-2.6 8.3-4.9-1.5-1.5-2.5-2.7-1.9-5.6.7-2.9-3.3-4.7-3.3-4.7l-6.1 8.4z"/><path fill="#BD704B" d="M21 17.9s1.3 3.3 5.4 5.8l.4-.7s-3.5-1-5.3-5.1-.5.1-.5 0zM13.7 6.2s-2.4 1-1.3 8.4c.4 4-1.3 3.7-1.7 3.3-.4-.4 1.1-2.4.3-3.1-.8-.7-1.9-.1-2.9-2.1-1.3-2.6.2-1.5 1.4-3.8.8-1.7 1.5-2.6 2.2-2.5.8.2 1.3-.8 2-.2z"/><g fill="#F2C57E"><path d="M8.9 14.7s.1 1.8-.2 2.7c-.6 1.4.8 3.4 2.7 1.3s-2.4-4-2.5-4z"/><path d="M18.7 6.7s-3.6-1.9-6.6.2-.6 1.8-2.4 4.5-.4 8.6 5.4 8.8c5.8.2 5.6-10.8 5.6-10.8s-.7-2.5-2-2.7z"/></g><path fill="#BD704B" d="M17.4 18.8s-1.8 1.6-1.7 2.7c.1 1 4.4.8.6 1.9-1 .3-1 2.1-.2 2.3.8.3-3.2-.4-3.2-1.7.1-1.3.6-3.7-.7-4.6-.1.1 3.3 1.2 5.2-.6z"/><path fill="#AE4747" d="M12.8 23.9s3.5 1.7 7.1-.3c2.7-1.4 3.5-3 3.3-3.4 0 0 .7 0 1.3.9.5.7-.3 2.8-4.2 4.5-3.7 1.5-7 .6-7.7-.1-.6-.4.2-1.6.2-1.6z"/><path fill="#3F2419" d="M11.4 10.8c-.2 0-.4-.2-.4-.4v-1c0-.2.2-.4.4-.4s.4.2.4.4v1c0 .2-.2.4-.4.4z"/><path fill="#F2C57E" d="M12.5 9.7s-3.1 2.2-4.3 2.7c-1.2.5-1 1.8.6 3.1s6.2-2.2 3.7-5.8z"/><path fill="#BD704B" d="M8 14.7s1.1 1.3.5 2.6c-.5.9 0 2.7 1.8 2.2 0 0-2.1.1-1.2-2.1.2-.8.2-2.1-1.1-2.7zm9.9-8.3s3.4 1.3 2.1 8.8c-.5 4 1.5 3.6 2 3.4.5-.4.5-1.7 1.4-2.2.9-.7 3.3-2.8 2.1-4.9-1.2-2.1-2.3-1.7-3.2-3-.7-1.2-1.1-1.4-2-1.4-.6-.2-1.5-1.2-2.4-.7z"/><path fill="#3F2419" d="M16.9 11.2c-.2 0-.5-.2-.5-.5v-1c0-.2.2-.5.5-.5.2 0 .5.2.5.5v1.1c0 .3-.2.4-.5.4z"/><g fill="#BD704B"><path d="M16.2 8.9s-1-.6-.2-1c1.1-.7 2.3.4 2.5.9 0 0-1.3-1.2-2.3-.7-.5.4 0 .8 0 .8zm-4.4-.8c0-.1-.1-.2-.2-.2-.1-.1-.4-.1-.6-.1s-.3.2-.4.3c.1-.2.2-.4.5-.6.1-.1.2-.1.4-.1s.5.1.7.2.3.4.3.7c-.1.3-.2.5-.4.6-.1 0-.1.1-.1 0v-.2c.1-.1.1-.2 0-.3-.1-.1-.1-.2-.2-.3zm-1.6 8.8s1 3.5 4.9 2.6c3.5-.8 4-3.8 4-3.8.2.7-.7 4.8-5.5 4.4-3.5-.3-3.4-3.2-3.4-3.2z"/><path d="M10.9 18.6s-.1 1.4-2.1.7c0 0 1 1.1 2.2-.1.5-.6-.1-.6-.1-.6zm-3.1-5c-.2-.1-.2-.5-.1-.7.2-.2.6-.4.8-.6 1.5-.7 3-1.5 4.1-2.8 0 0-3.3 2.2-4.9 2.9-.9.3.1 1.2.1 1.2z"/></g><path fill="#AE4747" d="M7.4 12.9c-.6.6.3 2.1 1.3 2.5 1.1.6 2.9-1.5 2.5-2.1-.2-.7-2.7-1.4-3.8-.4z"/><path fill="#6A2525" d="M9.6 14.7c-.1-.1-.1-.4 0-.5l.1-.1c0-.1.1-.1.1-.1.4-.1.8.1 1.1.5.2.2.1.5-.1.6-.3.1-.7.2-1 .1 0-.1-.1-.3-.2-.5zm-1.2 0c.1-.1.1-.4 0-.5l-.1-.1c0-.1-.1-.1-.1-.1-.3-.1-.7.1-.9.5-.3.2-.2.5 0 .6.2.1.6.2.7.1.3 0 .4-.3.4-.5z"/><path fill="#AE4747" d="M16 30C8.3 30 2 23.7 2 16S8.3 2 16 2s14 6.3 14 14-6.3 14-14 14zm0-26.1C9.4 3.9 3.9 9.4 3.9 16S9.4 28.1 16 28.1 28.1 22.6 28.1 16 22.7 3.9 16 3.9z"/><g fill="#BD704B"><path d="M12.1 6.6s4.2-1.8 7.4.9c0 0-.1-1.2-2.4-1.8-1.5-.2-4.3-.2-5 .9z"/><ellipse cx="11.6" cy="17.2" rx=".3" ry=".2"/><ellipse cx="13.5" cy="18.1" rx=".3" ry=".2"/><ellipse cx="15.1" cy="18.1" rx=".3" ry=".2"/><ellipse cx="14.3" cy="18.9" rx=".3" ry=".2"/><ellipse cx="12.3" cy="18.4" rx=".3" ry=".2"/></g></svg>

<svg xmlns="http://www.w3.org/2000/svg" viewBox="0 0 32 32"><path fill="#F2C57E" d="M12.8,25.2L11.9,29c0,0,8.5,0.2,12-2.7s2.7-2.7,2.7-2.7L22.9,20L12.8,25.2z"/><path fill="#BD704B" d="M15.3,25.7c0,0,0.3,2.8,1.2,3.3c0,0-4.5,0.4-4.4-0.9l0.7-2.9L15.3,25.7z"/><path fill="#F2C57E" d="M12.2,18.8c0,0,0.8,1.1,1,2.9c0.2,1.8-1.9,3.3,2,3.9c3.4,0.6,10.6-2.6,8.3-4.9c-1.5-1.5-2.5-2.7-1.9-5.6c0.7-2.9-3.3-4.7-3.3-4.7L12.2,18.8z"/><path fill="#BD704B" d="M21,17.9c0,0,1.3,3.3,5.4,5.8l0.4-0.7c0,0-3.5-1-5.3-5.1S21,18,21,17.9z M13.7,6.2c0,0-2.4,1-1.3,8.4c0.4,4-1.3,3.7-1.7,3.3c-0.4-0.4,1.1-2.4,0.3-3.1c-0.8-0.7-1.9-0.1-2.9-2.1c-1.3-2.6,0.2-1.5,1.4-3.8c0.8-1.7,1.5-2.6,2.2-2.5C12.5,6.6,13,5.6,13.7,6.2z"/><g><path fill="#F2C57E" d="M8.9,14.7c0,0,0.1,1.8-0.2,2.7c-0.6,1.4,0.8,3.4,2.7,1.3S9,14.7,8.9,14.7z"/><path fill="#F2C57E" d="M18.7,6.7c0,0-3.6-1.9-6.6,0.2s-0.6,1.8-2.4,4.5s-0.4,8.6,5.4,8.8c5.8,0.2,5.6-10.8,5.6-10.8S20,6.9,18.7,6.7z"/></g><path fill="#BD704B" d="M17.4,18.8c0,0-1.8,1.6-1.7,2.7c0.1,1,4.4,0.8,0.6,1.9c-1,0.3-1,2.1-0.2,2.3c0.8,0.3-3.2-0.4-3.2-1.7c0.1-1.3,0.6-3.7-0.7-4.6C12.1,19.5,15.5,20.6,17.4,18.8z"/><path fill="#AE4747" d="M12.8,23.9c0,0,3.5,1.7,7.1-0.3c2.7-1.4,3.5-3,3.3-3.4c0,0,0.7,0,1.3,0.9c0.5,0.7-0.3,2.8-4.2,4.5c-3.7,1.5-7,0.6-7.7-0.1C12,25.1,12.8,23.9,12.8,23.9z"/><path fill="#3F2419" d="M11.4,10.8L11.4,10.8c-0.2,0-0.4-0.2-0.4-0.4v-1c0-0.2,0.2-0.4,0.4-0.4l0,0c0.2,0,0.4,0.2,0.4,0.4v1C11.8,10.6,11.6,10.8,11.4,10.8z"/><path fill="#F2C57E" d="M12.5,9.7c0,0-3.1,2.2-4.3,2.7c-1.2,0.5-1,1.8,0.6,3.1S15,13.3,12.5,9.7z"/><path fill="#BD704B" d="M8,14.7c0,0,1.1,1.3,0.5,2.6c-0.5,0.9,0,2.7,1.8,2.2c0,0-2.1,0.1-1.2-2.1C9.3,16.6,9.3,15.3,8,14.7zM17.9,6.4c0,0,3.4,1.3,2.1,8.8c-0.5,4,1.5,3.6,2,3.4c0.5-0.4,0.5-1.7,1.4-2.2c0.9-0.7,3.3-2.8,2.1-4.9c-1.2-2.1-2.3-1.7-3.2-3c-0.7-1.2-1.1-1.4-2-1.4C19.7,6.9,18.8,5.9,17.9,6.4z"/><path fill="#3F2419" d="M16.9,11.2L16.9,11.2c-0.2,0-0.5-0.2-0.5-0.5V9.7c0-0.2,0.2-0.5,0.5-0.5l0,0c0.2,0,0.5,0.2,0.5,0.5v1.1C17.4,11.1,17.2,11.2,16.9,11.2z"/><g><path fill="#BD704B" d="M16.2,8.9c0,0-1-0.6-0.2-1c1.1-0.7,2.3,0.4,2.5,0.9c0,0-1.3-1.2-2.3-0.7C15.7,8.5,16.2,8.9,16.2,8.9zM11.8,8.1c0-0.1-0.1-0.2-0.2-0.2c-0.1-0.1-0.4-0.1-0.6-0.1S10.7,8,10.6,8.1c0.1-0.2,0.2-0.4,0.5-0.6c0.1-0.1,0.2-0.1,0.4-0.1s0.5,0.1,0.7,0.2s0.3,0.4,0.3,0.7c-0.1,0.3-0.2,0.5-0.4,0.6c-0.1,0-0.1,0.1-0.1,0L12,8.7c0.1-0.1,0.1-0.2,0-0.3C11.9,8.3,11.9,8.2,11.8,8.1z M10.2,16.9c0,0,1,3.5,4.9,2.6c3.5-0.8,4-3.8,4-3.8c0.2,0.7-0.7,4.8-5.5,4.4C10.1,19.8,10.2,16.9,10.2,16.9z"/><path fill="#BD704B" d="M10.9,18.6c0,0-0.1,1.4-2.1,0.7c0,0,1,1.1,2.2-0.1C11.5,18.6,10.9,18.6,10.9,18.6z M7.8,13.6c-0.2-0.1-0.2-0.5-0.1-0.7c0.2-0.2,0.6-0.4,0.8-0.6c1.5-0.7,3-1.5,4.1-2.8c0,0-3.3,2.2-4.9,2.9C6.8,12.7,7.8,13.6,7.8,13.6z"/></g><path fill="#AE4747" d="M7.4,12.9c-0.6,0.6,0.3,2.1,1.3,2.5c1.1,0.6,2.9-1.5,2.5-2.1C11,12.6,8.5,11.9,7.4,12.9z"/><g><path fill="#6A2525" d="M9.6,14.7c-0.1-0.1-0.1-0.4,0-0.5l0.1-0.1C9.7,14,9.8,14,9.8,14c0.4-0.1,0.8,0.1,1.1,0.5c0.2,0.2,0.1,0.5-0.1,0.6c-0.3,0.1-0.7,0.2-1,0.1C9.8,15.1,9.7,14.9,9.6,14.7z M8.4,14.7c0.1-0.1,0.1-0.4,0-0.5l-0.1-0.1C8.3,14,8.2,14,8.2,14c-0.3-0.1-0.7,0.1-0.9,0.5C7,14.7,7.1,15,7.3,15.1c0.2,0.1,0.6,0.2,0.7,0.1C8.3,15.2,8.4,14.9,8.4,14.7z"/></g><path fill="#AE4747" d="M16,30C8.3,30,2,23.7,2,16S8.3,2,16,2s14,6.3,14,14S23.7,30,16,30z M16,3.9C9.4,3.9,3.9,9.4,3.9,16S9.4,28.1,16,28.1S28.1,22.6,28.1,16S22.7,3.9,16,3.9z"/><g><path fill="#BD704B" d="M12.1,6.6c0,0,4.2-1.8,7.4,0.9c0,0-0.1-1.2-2.4-1.8C15.6,5.5,12.8,5.5,12.1,6.6z"/><ellipse fill="#BD704B" cx="11.6" cy="17.2" rx="0.3" ry="0.2"/><ellipse fill="#BD704B" cx="13.5" cy="18.1" rx="0.3" ry="0.2"/><ellipse fill="#BD704B" cx="15.1" cy="18.1" rx="0.3" ry="0.2"/><ellipse fill="#BD704B" cx="14.3" cy="18.9" rx="0.3" ry="0.2"/><ellipse fill="#BD704B" cx="12.3" cy="18.4" rx="0.3" ry="0.2"/></g></svg>
